src/lib/packages/icons/src/assets/filled/calendar-heart.svg

<svg width="24" height="24" viewBox="0 0 24 24" fill="none" xmlns="http://www.w3.org/2000/svg">
<path d="M20.7 9.75H3.30005C3.13405 9.75 3 9.88405 3 10.05V18C3 20 4 21 6 21H18C20 21 21 20 21 18V10.05C21 9.88405 20.866 9.75 20.7 9.75ZM15.4341 14.604C14.9781 16.917 12 18.25 12 18.25C12 18.25 9.02192 16.917 8.56592 14.604C8.28592 13.185 8.89788 11.757 10.4529 11.75C11.6109 11.745 12 12.8931 12 12.8931C12 12.8931 12.3891 11.745 13.5471 11.75C15.1051 11.757 15.7141 13.185 15.4341 14.604ZM21 7.5V7.94995C21 8.11595 20.866 8.25 20.7 8.25H3.30005C3.13405 8.25 3 8.11595 3 7.94995V7.5C3 5.5 4 4.5 6 4.5H7.25V3C7.25 2.59 7.59 2.25 8 2.25C8.41 2.25 8.75 2.59 8.75 3V4.5H15.25V3C15.25 2.59 15.59 2.25 16 2.25C16.41 2.25 16.75 2.59 16.75 3V4.5H18C20 4.5 21 5.5 21 7.5Z" fill="currentColor"/>
</svg>

<svg xmlns="http://www.w3.org/2000/svg" width="24" height="24" fill="none"><path fill="currentColor" d="M20.7 9.75H3.3a.3.3 0 0 0-.3.3V18c0 2 1 3 3 3h12c2 0 3-1 3-3v-7.95a.3.3 0 0 0-.3-.3Zm-5.266 4.854C14.978 16.917 12 18.25 12 18.25s-2.978-1.333-3.434-3.646c-.28-1.419.332-2.847 1.887-2.854C11.61 11.745 12 12.893 12 12.893s.39-1.148 1.547-1.143c1.558.007 2.167 1.435 1.887 2.854ZM21 7.5v.45a.3.3 0 0 1-.3.3H3.3a.3.3 0 0 1-.3-.3V7.5c0-2 1-3 3-3h1.25V3c0-.41.34-.75.75-.75s.75.34.75.75v1.5h6.5V3c0-.41.34-.75.75-.75s.75.34.75.75v1.5H18c2 0 3 1 3 3Z"/></svg>
